assets/svg/fruits.svg

<svg fill="none" height="77" viewBox="0 0 74 77" width="74" xmlns="http://www.w3.org/2000/svg"><path d="m72.8217 41.6232c-1.4276-3.3257-3.9804-5.8133-7.1879-7.0041-3.3834-1.2563-7.6195-.8597-11.333 1.0605-.713.3686-1.4653.5993-2.2155.7305-.2197-1.8058.1214-3.4839 1.022-5.0072.2882-.4877.6042-.9089.9058-1.2602.7337-.8542.8472-2.1146.2624-3.0884-.8563-1.426-2.7632-1.5948-3.838-.3444-.43.5003-.8745 1.088-1.2924 1.7634-1.0788 1.7442-2.1217 4.3233-1.9431 7.6217-.4657-.1369-.8342-.2834-1.0676-.407-2.0194-1.0689-4.2108-1.6699-6.3454-1.7835-1.1581-2.5112-1.767-5.2724-1.767-8.0679 0-2.9981-.9013-5.8464-2.6067-8.2369-1.6472-2.3094-3.9919-4.0436-6.6023-4.883-.0909-.0293-.1835-.0529-.2772-.0706-.0375-.007-.0746-.0129-.1119-.0197.8014-2.0878 2.3926-5.06971 5.4834-7.7759.998-.87384 1.2399-2.42366.4711-3.52548-.8291-1.188621-2.4218-1.3857197-3.487-.459898-1.9972 1.735618-3.5053 3.584848-4.6422 5.345778-1.1552-4.51353-6.6469-7.101283-12.8289-5.92969-4.37445.82833-9.14773 5.42429-11.60396 8.09039-.78526.85244-1.134944 2.0594-.935736 3.2288.199206 1.1696.925736 2.1729 1.942916 2.6837 2.75619 1.3842 7.61978 3.488 11.71558 3.4878.0783 0 .1554-.0031.2332-.0048-1.7603 2.3385-2.7652 5.2081-2.7652 8.0695 0 4.3101-1.445 8.5109-4.0689 11.829-3.32009 4.1983-5.14854 9.5254-5.14854 15.0001 0 12.9223 9.97014 23.4356 22.22494 23.4356 4.5037 0 8.8877-1.4463 12.5706-4.1103 4.2519 4.4528 8.1031 4.5705 10.8272 3.6474.6517-.2209 1.2516-.5803 1.797-1.0758.5459.4955 1.1456.8549 1.7973 1.0758.8192.2777 1.7398.4612 2.7431.4612 3.2939-.0001 7.4744-1.9804 11.8414-9.1147 3.005-4.9091 5.2615-10.8081 6.6253-14.8923 1.1566-3.4637 1.0164-7.1819-.3948-10.4694zm-66.17821-31.1142c2.94953-2.9383 5.73131-4.85037 7.63131-5.21036 3.8452-.72812 7.0453.65353 7.3386 2.37513.1276.74922-.3055 1.67474-1.1884 2.53893-1.1678 1.1433-2.9567 2.0108-4.9076 2.3804-1.9003.36-5.1395-.4118-8.87391-2.0841zm18.37061 60.4942c-9.5887.0002-17.39-8.2261-17.39-18.3375 0-4.2836 1.43018-8.4513 4.027-11.7351 3.3471-4.2325 5.1904-9.5929 5.1904-15.0939 0-2.2712 1.0888-4.5869 2.9121-6.1946 1.4681-1.2944 3.2895-2.0245 5.2848-2.1506.0773.0077.1544.013.2308.013.131 0 .2597-.013.3861-.0347.0025 0 .0051-.0002.0078-.0002.6118 0 1.2382.0556 1.8732.1679 3.3861 1.1544 5.6509 4.4308 5.6509 8.1994 0 3.0123.5517 5.9935 1.6124 8.7769-.0049.0018-.0099.0036-.0148.0054-.2005.0744-.3984.154-.5936.2384-2.9287 1.2668-5.2558 3.6477-6.5941 6.7658-1.4114 3.2876-1.5517 7.0056-.3949 10.4693 1.3639 4.0841 3.6203 9.9831 6.6253 14.8923.2234.3648.4462.7147.6685 1.053-2.8065 1.9246-6.1013 2.9652-9.4819 2.9652zm43.6421-20.6037c-3.7021 11.0859-9.6322 22.263-15.1701 20.3855-.1165-.0394-.5573-.4317-1.0396-1.6741-.372-.9578-1.2559-1.5833-2.2373-1.5833-.9815 0-1.8652.6257-2.2371 1.5835-.4821 1.2422-.9233 1.6343-1.0394 1.6739-2.3324.7902-4.7344-.735-7.0102-3.5932-.053-.0888-.1097-.1757-.1743-.2591-3.5133-4.5244-6.2354-11.4429-7.694-15.6739-.0177-.0516-.0354-.1032-.0531-.1547-.0299-.0873-.0595-.1738-.0883-.2584-.0505-.1488-.1008-.2976-.1504-.4462-.7409-2.2187-.6559-4.5888.239-6.6738.2746-.6397.6156-1.2284 1.0141-1.7579.3003-.3987.6342-.7622.9959-1.0896.0475-.0428.0954-.085.1435-.1265.4653-.4004.9745-.7421 1.5227-1.015.231-.115.4688-.2182.7128-.3088.1493-.0554.3032-.1048.4601-.15.0465-.0135.0942-.0243.1411-.0368.1123-.0299.2256-.0583.3412-.0829.0559-.0119.1125-.0223.1689-.0328.1116-.0211.2244-.0403.3387-.0567.057-.0081.114-.016.1716-.0229.1214-.0146.2445-.0262.3687-.0357 1.7968-.1359 3.7978.2885 5.5843 1.2346 1.3057.6912 3.543 1.3382 6.0521 1.395.0634.0053.1273.0082.1915.0082.0291 0 .0586-.0026.088-.0038 1.9977.0096 4.1498-.362 6.1326-1.3871 2.5348-1.3105 5.4465-1.6282 7.5985-.8292 1.9515.7248 3.5104 2.2511 4.389 4.2979.8957 2.0847.9804 4.4549.2395 6.6738z" fill="#3d4059"/></svg>

<svg width="74" height="77" viewBox="0 0 74 77" fill="none" xmlns="http://www.w3.org/2000/svg">
<path d="M72.8217 41.6232C71.3941 38.2975 68.8413 35.8099 65.6338 34.6191C62.2504 33.3628 58.0143 33.7594 54.3008 35.6796C53.5878 36.0482 52.8355 36.2789 52.0853 36.4101C51.8656 34.6043 52.2067 32.9262 53.1073 31.4029C53.3955 30.9152 53.7115 30.494 54.0131 30.1427C54.7468 29.2885 54.8603 28.0281 54.2755 27.0543C53.4192 25.6283 51.5123 25.4595 50.4375 26.7099C50.0075 27.2102 49.563 27.7979 49.1451 28.4733C48.0663 30.2175 47.0234 32.7966 47.202 36.095C46.7363 35.9581 46.3678 35.8116 46.1344 35.688C44.115 34.6191 41.9236 34.0181 39.789 33.9045C38.6309 31.3933 38.022 28.6321 38.022 25.8366C38.022 22.8385 37.1207 19.9902 35.4153 17.5997C33.7681 15.2903 31.4234 13.5561 28.813 12.7167C28.7221 12.6874 28.6295 12.6638 28.5358 12.6461C28.4983 12.6391 28.4612 12.6332 28.4239 12.6264C29.2253 10.5386 30.8165 7.55669 33.9073 4.8505C34.9053 3.97666 35.1472 2.42684 34.3784 1.32502C33.5493 0.136399 31.9566 -0.0606997 30.8914 0.865122C28.8942 2.60074 27.3861 4.44997 26.2492 6.2109C25.094 1.69737 19.6023 -0.890383 13.4203 0.28121C9.04585 1.10954 4.27257 5.7055 1.81634 8.3716C1.03108 9.22404 0.681396 10.431 0.880604 11.6004C1.07981 12.77 1.80634 13.7733 2.82352 14.2841C5.57971 15.6683 10.4433 17.7721 14.5391 17.7719C14.6174 17.7719 14.6945 17.7688 14.7723 17.7671C13.012 20.1056 12.0071 22.9752 12.0071 25.8366C12.0071 30.1467 10.5621 34.3475 7.9382 37.6656C4.61811 41.8639 2.78966 47.191 2.78966 52.6657C2.78966 65.588 12.7598 76.1013 25.0146 76.1013C29.5183 76.1013 33.9023 74.655 37.5852 71.991C41.8371 76.4438 45.6883 76.5615 48.4124 75.6384C49.0641 75.4175 49.664 75.0581 50.2094 74.5626C50.7553 75.0581 51.355 75.4175 52.0067 75.6384C52.8259 75.9161 53.7465 76.0996 54.7498 76.0996C58.0437 76.0995 62.2242 74.1192 66.5912 66.9849C69.5962 62.0758 71.8527 56.1768 73.2165 52.0926C74.3731 48.6289 74.2329 44.9107 72.8217 41.6232ZM6.64349 10.509C9.59302 7.5707 12.3748 5.65863 14.2748 5.29864C18.12 4.57052 21.3201 5.95217 21.6134 7.67377C21.741 8.42299 21.3079 9.34851 20.425 10.2127C19.2572 11.356 17.4683 12.2235 15.5174 12.5931C13.6171 12.9531 10.3779 12.1813 6.64349 10.509ZM25.0141 71.0032C15.4254 71.0034 7.6241 62.7771 7.6241 52.6657C7.6241 48.3821 9.05428 44.2144 11.6511 40.9306C14.9982 36.6981 16.8415 31.3377 16.8415 25.8367C16.8415 23.5655 17.9303 21.2498 19.7536 19.6421C21.2217 18.3477 23.0431 17.6176 25.0384 17.4915C25.1157 17.4992 25.1928 17.5045 25.2692 17.5045C25.4002 17.5045 25.5289 17.4915 25.6553 17.4698C25.6578 17.4698 25.6604 17.4696 25.6631 17.4696C26.2749 17.4696 26.9013 17.5252 27.5363 17.6375C30.9224 18.7919 33.1872 22.0683 33.1872 25.8369C33.1872 28.8492 33.7389 31.8304 34.7996 34.6138C34.7947 34.6156 34.7897 34.6174 34.7848 34.6192C34.5843 34.6936 34.3864 34.7732 34.1912 34.8576C31.2625 36.1244 28.9354 38.5053 27.5971 41.6234C26.1857 44.911 26.0454 48.629 27.2022 52.0927C28.5661 56.1768 30.8225 62.0758 33.8275 66.985C34.0509 67.3498 34.2737 67.6997 34.496 68.038C31.6895 69.9626 28.3947 71.0032 25.0141 71.0032ZM68.6562 50.3995C64.9541 61.4854 59.024 72.6625 53.4861 70.785C53.3696 70.7456 52.9288 70.3533 52.4465 69.1109C52.0745 68.1531 51.1906 67.5276 50.2092 67.5276C49.2277 67.5276 48.344 68.1533 47.9721 69.1111C47.49 70.3533 47.0488 70.7454 46.9327 70.785C44.6003 71.5752 42.1983 70.05 39.9225 67.1918C39.8695 67.103 39.8128 67.0161 39.7482 66.9327C36.2349 62.4083 33.5128 55.4898 32.0542 51.2588C32.0365 51.2072 32.0188 51.1556 32.0011 51.1041C31.9712 51.0168 31.9416 50.9303 31.9128 50.8457C31.8623 50.6969 31.812 50.5481 31.7624 50.3995C31.0215 48.1808 31.1065 45.8107 32.0014 43.7257C32.276 43.086 32.617 42.4973 33.0155 41.9678C33.3158 41.5691 33.6497 41.2056 34.0114 40.8782C34.0589 40.8354 34.1068 40.7932 34.1549 40.7517C34.6202 40.3513 35.1294 40.0096 35.6776 39.7367C35.9086 39.6217 36.1464 39.5185 36.3904 39.4279C36.5397 39.3725 36.6936 39.3231 36.8505 39.2779C36.897 39.2644 36.9447 39.2536 36.9916 39.2411C37.1039 39.2112 37.2172 39.1828 37.3328 39.1582C37.3887 39.1463 37.4453 39.1359 37.5017 39.1254C37.6133 39.1043 37.7261 39.0851 37.8404 39.0687C37.8974 39.0606 37.9544 39.0527 38.012 39.0458C38.1334 39.0312 38.2565 39.0196 38.3807 39.0101C40.1775 38.8742 42.1785 39.2986 43.965 40.2447C45.2707 40.9359 47.508 41.5829 50.0171 41.6397C50.0805 41.645 50.1444 41.6479 50.2086 41.6479C50.2377 41.6479 50.2672 41.6453 50.2966 41.6441C52.2943 41.6537 54.4464 41.2821 56.4292 40.257C58.964 38.9465 61.8757 38.6288 64.0277 39.4278C65.9792 40.1526 67.5381 41.6789 68.4167 43.7257C69.3124 45.8104 69.3971 48.1806 68.6562 50.3995Z" fill="#3D4059"/>
</svg>
